Newaita-dark/actions/22/mail-mark-read.svg

<svg height="22" viewBox="0 0 22 22" width="22" xmlns="http://www.w3.org/2000/svg"><g fill="#e0e0e0"><path d="m1.820312 8.359375v8.183594c0 1.007812.808594 1.820312 1.816407 1.820312h14.554687c1.007813 0 1.820313-.8125 1.820313-1.820312v-8.183594h-1.820313v7.277344c0 .503906-.40625.90625-.910156.90625h-12.734375c-.503906 0-.910156-.402344-.910156-.90625v-7.277344zm0 0"/><path d="m10.929688 3.816406c-.128907-.003906-.261719.023438-.382813.074219l-8.1875 3.640625c-.300781.128906-.507813.40625-.542969.734375-.035156.324219.105469.640625.371094.832031s.613281.226563.910156.085938l7.816406-3.472656 7.820313 3.472656c.296875.140625.644531.105468.910156-.085938s.40625-.507812.371094-.832031c-.039063-.328125-.246094-.605469-.546875-.734375l-8.1875-3.640625c-.109375-.046875-.230469-.074219-.351562-.074219zm0 0"/><path d="m2.746094 7.449219c-.433594-.015625-.820313.28125-.914063.707031s.128907.859375.527344 1.027344l8.1875 3.640625c.234375.105469.5.105469.734375 0l8.1875-3.640625c.300781-.125.507812-.40625.546875-.730469.035156-.324219-.105469-.644531-.371094-.835937-.265625-.191407-.613281-.222657-.910156-.085938l-7.820313 3.476562-7.816406-3.476562c-.109375-.050781-.230468-.078125-.351562-.082031zm0 0"/></g></svg>

<?xml version="1.0" encoding="UTF-8"?>
<svg xmlns="http://www.w3.org/2000/svg" xmlns:xlink="http://www.w3.org/1999/xlink" width="22px" height="22px" viewBox="0 0 22 22" version="1.1">
<g id="surface1">
<path style=" stroke:none;fill-rule:nonzero;fill:rgb(87.843138%,87.843138%,87.843138%);fill-opacity:1;" d="M 1.820312 8.359375 L 1.820312 16.542969 C 1.820312 17.550781 2.628906 18.363281 3.636719 18.363281 L 18.191406 18.363281 C 19.199219 18.363281 20.011719 17.550781 20.011719 16.542969 L 20.011719 8.359375 L 18.191406 8.359375 L 18.191406 15.636719 C 18.191406 16.140625 17.785156 16.542969 17.28125 16.542969 L 4.546875 16.542969 C 4.042969 16.542969 3.636719 16.140625 3.636719 15.636719 L 3.636719 8.359375 Z M 1.820312 8.359375 "/>
<path style=" stroke:none;fill-rule:nonzero;fill:rgb(87.843138%,87.843138%,87.843138%);fill-opacity:1;" d="M 10.929688 3.816406 C 10.800781 3.8125 10.667969 3.839844 10.546875 3.890625 L 2.359375 7.53125 C 2.058594 7.660156 1.851562 7.9375 1.816406 8.265625 C 1.78125 8.589844 1.921875 8.90625 2.1875 9.097656 C 2.453125 9.289062 2.800781 9.324219 3.097656 9.183594 L 10.914062 5.710938 L 18.734375 9.183594 C 19.03125 9.324219 19.378906 9.289062 19.644531 9.097656 C 19.910156 8.90625 20.050781 8.589844 20.015625 8.265625 C 19.976562 7.9375 19.769531 7.660156 19.46875 7.53125 L 11.28125 3.890625 C 11.171875 3.84375 11.050781 3.816406 10.929688 3.816406 Z M 10.929688 3.816406 "/>
<path style=" stroke:none;fill-rule:nonzero;fill:rgb(87.843138%,87.843138%,87.843138%);fill-opacity:1;" d="M 2.746094 7.449219 C 2.3125 7.433594 1.925781 7.730469 1.832031 8.15625 C 1.738281 8.582031 1.960938 9.015625 2.359375 9.183594 L 10.546875 12.824219 C 10.78125 12.929688 11.046875 12.929688 11.28125 12.824219 L 19.46875 9.183594 C 19.769531 9.058594 19.976562 8.777344 20.015625 8.453125 C 20.050781 8.128906 19.910156 7.808594 19.644531 7.617188 C 19.378906 7.425781 19.03125 7.394531 18.734375 7.53125 L 10.914062 11.007812 L 3.097656 7.53125 C 2.988281 7.480469 2.867188 7.453125 2.746094 7.449219 Z M 2.746094 7.449219 "/>
</g>
</svg>
